X:21
T:PEGDRBY1- Pretty Peggy of Derby, O!
S:Arnold's 'Music for ... Two to One, 1784
Q:1/4=120
L:1/4
M:C
K:C
G/|ccc/ B/ (A/G/)|cc3/4 c/4 c/B/ A/G/|c/ c/ c/ c/ c/ e/ g/ e/|\
(d/4B3/4) (G3/4A/4) Gz/||e/|f/ d/ e/ f/ (g/e/) d/ c/|\
c/ A/ G/ F/ (F/D/) (F/G/)|A/ B/ c/ A/ B/ .d/ B/ G/|\
A (c3/4d/)cz/|]

